X: 1860
T: Arkansas Traveler, The
R: reel
M: 4/4
K: Dmajor
|:dfed B2B2|A2A2 d4|e2e2 f2f2|efed B2A2|
dfed B2B2|A2A2 d4|(3ABc dd BA A2|F2 E2 D4:|
|:afaa gega|fdfa e2A2|d2d2 e2e2|f2d2 e2fg|
afaa gega|fdfa e2A2|(3ABc dd BA A2|F2 E2 D4:|

